images/continents/europe/leagues/bundesliga/clubs/werder-bremen.svg

<svg xmlns="http://www.w3.org/2000/svg" xmlns:xlink="http://www.w3.org/1999/xlink" width="1080" zoomAndPan="magnify" viewBox="0 0 810 809.999993" height="1080" preserveAspectRatio="xMidYMid meet" version="1.0"><path fill="#28844a" d="M 404.917969 1.304688 L 135.828125 404.945312 L 404.917969 808.582031 L 674.011719 404.945312 L 404.917969 1.304688 " fill-opacity="1" fill-rule="nonzero"/><path fill="#ffffff" d="M 259.429688 349.523438 C 259.429688 330.3125 261.695312 304.640625 273.808594 280.625 C 282.058594 264.253906 297.660156 247.933594 321.835938 249.203125 C 330.621094 249.660156 357.34375 255.875 357.542969 285.601562 C 357.609375 299.476562 349.25 324.855469 311.769531 324.855469 C 311.769531 324.855469 307.117188 361.960938 307.117188 381.304688 C 307.117188 398.5 307.464844 475.703125 335.960938 536.410156 L 404.105469 385.089844 L 469.03125 536.78125 C 469.03125 536.78125 496.480469 469.296875 496.480469 411.304688 C 496.480469 354.152344 480.554688 315.613281 467.234375 295.207031 C 448.199219 266.011719 423.703125 255.875 412.382812 256.664062 C 412.382812 256.664062 400.109375 268.664062 381.355469 267.34375 C 358.523438 265.726562 344.542969 249.566406 344.25 228.445312 C 343.96875 210.894531 355.828125 191.316406 373.8125 179.816406 C 390.730469 169 420.820312 170.027344 440.175781 176.050781 C 471.367188 185.753906 498.089844 219.714844 511.902344 244.40625 C 524.96875 267.746094 538.652344 314.527344 538.746094 375.605469 C 538.855469 426.417969 520.355469 503.710938 496.824219 562.503906 C 473.804688 620 460.242188 643.519531 460.242188 643.519531 L 404.105469 530.167969 L 348.542969 643.625 C 348.542969 643.625 295.246094 531.078125 281.121094 479.617188 C 266.980469 428.144531 259.429688 367.789062 259.429688 349.523438 " fill-opacity="1" fill-rule="nonzero"/><path fill="#ffffff" d="M 170.292969 404.945312 L 404.917969 756.878906 L 639.542969 404.945312 L 404.917969 53.007812 Z M 404.917969 785.402344 L 151.28125 404.945312 L 404.917969 24.484375 L 658.558594 404.945312 L 404.917969 785.402344 " fill-opacity="1" fill-rule="nonzero"/></svg>

<svg xmlns="http://www.w3.org/2000/svg" width="1080" viewBox="0 0 810 810" height="1080" version="1.0"><path fill="#28844a" d="m404.918 1.305-269.09 403.64 269.09 403.637 269.094-403.637L404.918 1.305"/><path fill="#fff" d="M259.43 349.523c0-19.21 2.265-44.882 14.379-68.898 8.25-16.371 23.851-32.691 48.027-31.422 8.785.457 35.508 6.672 35.707 36.399.066 13.875-8.293 39.253-45.773 39.253 0 0-4.653 37.106-4.653 56.45 0 17.195.348 94.398 28.844 155.105l68.144-151.32 64.926 151.691s27.45-67.484 27.45-125.476c0-57.153-15.926-95.692-29.247-116.098-19.035-29.195-43.53-39.332-54.851-38.543 0 0-12.274 12-31.028 10.68-22.832-1.617-36.812-17.778-37.105-38.899-.281-17.55 11.578-37.129 29.563-48.629 16.917-10.816 47.007-9.789 66.363-3.765 31.191 9.703 57.914 43.664 71.726 68.355 13.067 23.34 26.75 70.121 26.844 131.2.11 50.812-18.39 128.105-41.922 186.898-23.02 57.496-36.582 81.016-36.582 81.016l-56.137-113.352-55.562 113.457s-53.297-112.547-67.422-164.008c-14.14-51.472-21.691-111.828-21.691-130.094"/><path fill="#fff" d="M170.293 404.945 404.918 756.88l234.625-351.934L404.918 53.008Zm234.625 380.457L151.281 404.945l253.637-380.46 253.64 380.46-253.64 380.457"/></svg>
